X: 756
T: Ferahnâk Seyir
C: Şefik Gürmeriç
O: Turkey
F: http://compmusic.upf.edu/node/140
N: ferahnak--seyir--duyek--1--sefik_gurmeric
N: makam= ferahnak
N: form= seyir
N: usul= duyek = 8/4
M: 8/4
L: 1/16
K: C ^f ^c  
Q: 1/4=120
%%MIDI tuningsystem comma53
f8 f4 f4  | g2 ab a2 g2 f3e d4  | z2 g4 f2 e4 d2 c2  | \
w:   |   |   | 
d2 ef e2 d2 c3B A4  | 
w:   | 
z2 d4 e2 f2 ga g2 f2  | f2 e2 e2 d2 ag fg a4  | \
w:   |   | 
z2 =c'2 b2 a2 a2 g2 f2 ^e2  | 
w:   | 
f6 c2 d2 ^e2 f4  | z2 g4 ^9/8f2 e2 ^d2 e2 b2  | \
w:   |   | 
a2 gf e2 dc B8  | z2 B4 A2 B2 AG G4  | 
w:   |   | 
z2 A4 GF F2 ED D4  | z2 A4 Bc de dc d2 B2  | \
w:   |   | 
A2 G2 F2 E2 D2 B2 A4  | 
w:   | 
z2 G4 F2 F2 E2 E2 D2  | GF GA AG GF F8  | |


